X:0
T:Infernal
C:Annibal Augusto Sardinha
R:Choro
M:2/4
K:C
|: E2cA EcAE | F2cA FcAF | E^GBd fe^de | fecA ^G=G_GF | E2cA EcAE |
 B4 zBe^f | g^f^A^c gfB^d | fedB ^G=G^F=F | E2cA EcAE | F2cA FcAF |
 E^GBd fedf | fe^cA GAce | edAF DFAd | dcAE CEAc |
 ^D^FAc =DE^GB |1 AEcA ^G=G_GF :|2 A4 zggg |: gGBd gggg |
 gEGc eeee | eE^GB eeee | eGA^c eeee | ^dcA^F dcba |
|1 agec egc&#x27;e&#x27; | e&#x27;d&#x27;^c&#x27;d&#x27; =c&#x27;d&#x27;e^f | agfd Bggg :|2 agec fed^c |
 edAd agfd | c3z cggg |
